static/images/pieces/xiangqi/wikim/red_pawn.svg

<?xml version="1.0" encoding="UTF-8" standalone="no"?>
<svg
   width="100"
   height="100"
   version="1.1"
   id="svg1713"
   sodipodi:docname="red_pawn.svg"
   viewBox="-6 -6 112 112"
   inkscape:version="1.2.2 (b0a8486541, 2022-12-01)"
   xmlns:inkscape="http://www.inkscape.org/namespaces/inkscape"
   xmlns:sodipodi="http://sodipodi.sourceforge.net/DTD/sodipodi-0.dtd"
   xmlns="http://www.w3.org/2000/svg"
   xmlns:svg="http://www.w3.org/2000/svg"
   xmlns:rdf="http://www.w3.org/1999/02/22-rdf-syntax-ns#"
   xmlns:cc="http://creativecommons.org/ns#"
   xmlns:dc="http://purl.org/dc/elements/1.1/">
  <defs
     id="defs1717" />
  <sodipodi:namedview
     id="namedview1715"
     pagecolor="#ffffff"
     bordercolor="#666666"
     borderopacity="1.0"
     inkscape:showpageshadow="2"
     inkscape:pageopacity="0.0"
     inkscape:pagecheckerboard="0"
     inkscape:deskcolor="#d1d1d1"
     showgrid="false"
     inkscape:zoom="2.36"
     inkscape:cx="50.211864"
     inkscape:cy="50"
     inkscape:window-width="1920"
     inkscape:window-height="1022"
     inkscape:window-x="0"
     inkscape:window-y="0"
     inkscape:window-maximized="1"
     inkscape:current-layer="svg1713" />
  <title
     id="title1705">兵</title>
  <!-- 此字型為全字庫正楷體，中華民國國家發展委員會，CNS11643中文標準交換碼全字庫網站，https://www.cns11643.gov.tw/。 -->
  <circle
     r="48.5"
     cx="50"
     cy="50"
     stroke-width="3"
     stroke="#000000"
     fill="#ffddaa"
     id="circle1707" />
  <circle
     r="43.5"
     cx="50"
     cy="50"
     stroke-width="3"
     stroke="#cc0000"
     fill="none"
     id="circle1709" />
  <path
     transform="translate(15,14)"
     fill="#cc0000"
     d="m 39.9,6.9 c -2.2,2.2 -9.5,6.4 -13.6,7.6 -1.5,0.4 -1.8,0.4 -3.1,-0.1 -1.9,-0.9 -3.5,-1.1 -4.5,-0.7 -1,0.3 -1,0.9 -0.3,3 0.7,2.1 4.3,24.8 3.9,25.1 -0.3,0.3 -6.2,0.9 -11.4,1.1 -5.9,0.2 -6.6,0.5 -6.2,1.8 0.3,0.8 3.7,2.9 5.3,3.1 0.6,0.1 2.3,0 3.7,-0.3 10.1,-2.3 24.5,-3.4 45,-3.5 6.4,-0.1 7.1,-0.3 7.1,-1.8 0,-1.1 -1.3,-2 -4.4,-3 -2.2,-0.7 -2.6,-0.8 -5,-0.4 -3.2,0.5 -11.5,1.2 -11.9,1 -0.4,-0.1 1.9,-8 2.6,-9.2 0.8,-1.1 0.3,-2.3 -1.2,-3.2 -0.6,-0.3 -1.1,-0.7 -1.1,-0.8 0,-0.1 2,-0.4 4.4,-0.6 2.4,-0.3 4.7,-0.6 5.1,-0.8 1.8,-1 -0.5,-3.1 -4.1,-3.9 -1.5,-0.3 -2.1,-0.2 -4,0.4 -1.3,0.3 -4,1 -6.1,1.4 -2.1,0.4 -6,1.1 -8.6,1.6 -2.5,0.5 -4.8,0.8 -4.9,0.8 -0.3,0 -0.4,-0.8 -0.9,-4.7 l -0.2,-1.8 2,-0.6 c 4.8,-1.4 14.9,-4.1 17.3,-4.6 2.9,-0.6 3.8,-1.2 3.8,-2.5 0,-1 -1.8,-2.9 -4.3,-4.3 C 42.1,5.7 41,5.7 39.9,6.9 m -0.2,21.8 c 0.3,1.3 -0.4,11.2 -0.8,11.6 -0.1,0.1 -2.6,0.4 -5.5,0.5 L 28.1,41 27.5,36.4 c -0.3,-2.6 -0.6,-5.2 -0.7,-5.8 l -0.2,-1.1 6,-1 c 3.4,-0.6 6.2,-1.1 6.4,-1 0.2,0 0.5,0.6 0.7,1.2 m -15.3,19 c -0.3,0.4 -0.6,1.3 -0.8,2 -0.3,1.6 -6.6,7.9 -11.5,11.4 -3.2,2.4 -4,3.4 -2.8,3.9 1.6,0.6 11.1,-4.4 17,-8.8 1.8,-1.4 3.9,-2.9 4.8,-3.3 C 33.6,51.6 33,50.2 29,48 26.7,46.7 25.1,46.6 24.4,47.7 m 14.2,1 c -0.3,0.3 -0.5,0.6 -0.5,0.7 0,0.2 1.4,1.8 3.1,3.6 1.7,1.7 4.2,4.6 5.7,6.3 4,4.8 6.8,6.2 8.4,4.1 0.7,-0.8 0.7,-1.2 0.6,-2.9 -0.1,-1.1 -0.4,-2.5 -0.8,-3.1 -1.5,-2.9 -5.8,-5.8 -12.2,-8 -3.4,-1.2 -3.7,-1.3 -4.3,-0.7"
     id="path1711" />
  <metadata
     id="metadata8940">
    <rdf:RDF>
      <cc:Work
         rdf:about="">
        <dc:title>兵</dc:title>
      </cc:Work>
    </rdf:RDF>
  </metadata>
</svg>

<?xml version="1.0" encoding="UTF-8"?>
<svg width="100" height="100"
	xmlns="http://www.w3.org/2000/svg">
	<title>兵</title>
	<!-- 此字型為全字庫正楷體，中華民國國家發展委員會，CNS11643中文標準交換碼全字庫網站，https://www.cns11643.gov.tw/。 -->
	<circle r="48.5" cx="50" cy="50" stroke-width="3" stroke="#000" fill="#fda"/>
	<circle r="43.5" cx="50" cy="50" stroke-width="3" stroke="#c00" fill="none"/>
	<path transform="translate(15,14)" fill="#c00" d="M39.9 6.9 C37.7 9.1,30.4 13.3,26.3 14.5 C24.8 14.9,24.5 14.9,23.2 14.4 C21.3 13.5,19.7 13.3,18.7 13.7 C17.7 14.0,17.7 14.6,18.4 16.7 C19.1 18.8,22.7 41.5,22.3 41.8 C22.0 42.1,16.1 42.7,10.9 42.9 C5.0 43.1,4.3 43.4,4.7 44.7 C5.0 45.5,8.4 47.6,10.0 47.8 C10.6 47.9,12.3 47.8,13.7 47.5 C23.8 45.2,38.2 44.1,58.7 44.0 C65.1 43.9,65.8 43.7,65.8 42.2 C65.8 41.1,64.5 40.2,61.4 39.2 C59.2 38.5,58.8 38.4,56.4 38.8 C53.2 39.3,44.9 40.0,44.5 39.8 C44.1 39.7,46.4 31.8,47.1 30.6 C47.9 29.5,47.4 28.3,45.9 27.4 C45.3 27.1,44.8 26.7,44.8 26.6 C44.8 26.5,46.8 26.2,49.2 26.0 C51.6 25.7,53.9 25.4,54.3 25.2 C56.1 24.2,53.8 22.1,50.2 21.3 C48.7 21.0,48.1 21.1,46.2 21.7 C44.9 22.0,42.2 22.7,40.1 23.1 C38.0 23.5,34.1 24.2,31.5 24.7 C29.0 25.2,26.7 25.5,26.6 25.5 C26.3 25.5,26.2 24.7,25.7 20.8 L25.5 19.0 27.5 18.4 C32.3 17.0,42.4 14.3,44.8 13.8 C47.7 13.2,48.6 12.6,48.6 11.3 C48.6 10.3,46.8 8.4,44.3 7.0 C42.1 5.7,41.0 5.7,39.9 6.9 M39.7 28.7 C40.0 30.0,39.3 39.9,38.9 40.3 C38.8 40.4,36.3 40.7,33.4 40.8 L28.1 41.0 27.5 36.4 C27.2 33.8,26.9 31.2,26.8 30.6 L26.6 29.5 32.6 28.5 C36.0 27.9,38.8 27.4,39.0 27.5 C39.2 27.5,39.5 28.1,39.7 28.7 M24.4 47.7 C24.1 48.1,23.8 49.0,23.6 49.7 C23.3 51.3,17.0 57.6,12.1 61.1 C8.9 63.5,8.1 64.5,9.3 65.0 C10.9 65.6,20.4 60.6,26.3 56.2 C28.1 54.8,30.2 53.3,31.1 52.9 C33.6 51.6,33.0 50.2,29.0 48.0 C26.7 46.7,25.1 46.6,24.4 47.7 M38.6 48.7 C38.3 49.0,38.1 49.3,38.1 49.4 C38.1 49.6,39.5 51.2,41.2 53.0 C42.9 54.7,45.4 57.6,46.9 59.3 C50.9 64.1,53.7 65.5,55.3 63.4 C56.0 62.6,56.0 62.2,55.9 60.5 C55.8 59.4,55.5 58.0,55.1 57.4 C53.6 54.5,49.3 51.6,42.9 49.4 C39.5 48.2,39.2 48.1,38.6 48.7 "/>
</svg>
